symbolic/24x24/apps/hubstaff-black.svg

<svg xmlns="http://www.w3.org/2000/svg" width="24" height="24" version="1.1">
 <path style="opacity:0.2" d="M 9.6230469 2.5 C 9.332949 2.5 5.2275563 4.9547406 5.0703125 5.2070312 C 5.0030731 5.314857 4.9918535 5.7176546 5.0449219 6.1015625 C 5.2644044 7.6894359 4.4004715 8.7619603 2.8867188 9.4257812 L 2 9.8144531 L 2 12.533203 C 2 14.028562 2.055805 15.310207 2.125 15.380859 C 2.5303291 15.79473 5.5136962 15.063167 6.7226562 14.253906 L 7.2832031 13.878906 L 7.2265625 12.617188 C 7.1796824 11.600683 7.2375111 12.061371 7.5273438 11.410156 C 8.0108664 10.323733 8.9079152 9.4476615 9.9765625 9.0175781 C 10.735 8.7123391 10.872269 8.5878069 10.960938 8.1191406 C 11.157987 7.0776007 10.574517 3.4405868 10.003906 2.7070312 C 9.9149562 2.5926788 9.7437414 2.5 9.6230469 2.5 z M 13.376953 2.5 C 13.256258 2.5 13.085045 2.5926789 12.996094 2.7070312 C 12.425484 3.4405868 11.842014 7.0776008 12.039062 8.1191406 C 12.127733 8.587807 12.264999 8.7123391 13.023438 9.0175781 C 14.092085 9.4476615 14.989134 10.323733 15.472656 11.410156 C 15.762489 12.061371 15.820316 11.600682 15.773438 12.617188 L 15.716797 13.878906 L 16.277344 14.253906 C 17.486305 15.063167 20.469672 15.794729 20.875 15.380859 C 20.944195 15.310208 21 14.028562 21 12.533203 L 21 9.8144531 L 20.113281 9.4257812 C 18.599527 8.7619602 17.782471 7.6894359 18.001953 6.1015625 C 18.055023 5.7176546 18.043802 5.3148571 17.976562 5.2070312 C 17.819315 4.9547406 13.667052 2.5 13.376953 2.5 z M 7.9824219 15.5 C 5.9271413 16.159649 4.3886369 17.381459 3.0429688 19.144531 C 2.8898014 19.728076 3.0082111 19.821064 5.8105469 21.351562 C 6.619433 21.793335 7.3919156 22.185401 7.9023438 22.417969 C 8.3031879 22.583488 8.4800919 22.250544 8.7734375 21.763672 C 9.1833394 21.310789 10.055494 20.605469 11.5 20.605469 C 12.82499 20.605469 13.709732 21.200471 14.1875 21.648438 C 14.51218 22.008115 14.578829 22.753893 15.150391 22.412109 C 15.668465 22.160506 16.500068 21.725605 17.394531 21.234375 C 20.608462 19.469321 20.6136 19.459708 18.691406 17.671875 C 17.604423 16.662968 16.386542 15.702371 14.746094 15.5 L 13.820312 16.140625 C 12.666408 16.93927 12.675252 17.201596 11.4375 17.191406 C 10.204283 17.181257 9.7826583 16.863419 8.7792969 16.103516 L 7.9824219 15.5 z"/>
 <path style="fill:#3f3f3f" d="M 9.6230469 2 C 9.332949 2 5.2275563 4.4547407 5.0703125 4.7070312 C 5.0030731 4.814857 4.9918535 5.2176546 5.0449219 5.6015625 C 5.2644044 7.1894359 4.4004715 8.2619602 2.8867188 8.9257812 L 2 9.3144531 L 2 12.033203 C 2 13.528562 2.055805 14.810207 2.125 14.880859 C 2.5303291 15.29473 5.5136962 14.563167 6.7226562 13.753906 L 7.2832031 13.378906 L 7.2265625 12.117188 C 7.1796824 11.100683 7.2375111 11.561371 7.5273438 10.910156 C 8.0108664 9.8237331 8.9079152 8.9476615 9.9765625 8.5175781 C 10.735 8.2123391 10.872269 8.0878069 10.960938 7.6191406 C 11.157987 6.5776007 10.574517 2.9405868 10.003906 2.2070312 C 9.9149562 2.0926789 9.7437414 2 9.6230469 2 z M 13.376953 2 C 13.256258 2 13.085045 2.0926789 12.996094 2.2070312 C 12.425484 2.9405868 11.842014 6.5776008 12.039062 7.6191406 C 12.127733 8.087807 12.264999 8.2123391 13.023438 8.5175781 C 14.092085 8.9476615 14.989134 9.8237332 15.472656 10.910156 C 15.762489 11.561371 15.820316 11.100682 15.773438 12.117188 L 15.716797 13.378906 L 16.277344 13.753906 C 17.486305 14.563167 20.469672 15.294729 20.875 14.880859 C 20.944195 14.810208 21 13.528562 21 12.033203 L 21 9.3144531 L 20.113281 8.9257812 C 18.599527 8.2619602 17.782471 7.1894359 18.001953 5.6015625 C 18.055023 5.2176546 18.043802 4.8148572 17.976562 4.7070312 C 17.819315 4.4547406 13.667052 2 13.376953 2 z M 7.9824219 15 C 5.9271413 15.659649 4.3886369 16.881459 3.0429688 18.644531 C 2.8898014 19.228076 3.0082111 19.321064 5.8105469 20.851562 C 6.619433 21.293335 7.3919156 21.685401 7.9023438 21.917969 C 8.3031879 22.083488 8.4800919 21.750544 8.7734375 21.263672 C 9.1833394 20.810789 10.055494 20.105469 11.5 20.105469 C 12.82499 20.105469 13.709732 20.700471 14.1875 21.148438 C 14.51218 21.508115 14.578829 22.253893 15.150391 21.912109 C 15.668465 21.660506 16.500068 21.225605 17.394531 20.734375 C 20.608462 18.969321 20.6136 18.959708 18.691406 17.171875 C 17.604423 16.162968 16.386542 15.202371 14.746094 15 L 13.820312 15.640625 C 12.666408 16.43927 12.675252 16.701596 11.4375 16.691406 C 10.204283 16.681257 9.7826583 16.363419 8.7792969 15.603516 L 7.9824219 15 z"/>
 <circle style="opacity:0.2" cx="11.5" cy="13" r="4.5"/>
 <circle style="fill:#ffffff" cx="11.5" cy="12.5" r="4.5"/>
 <path style="fill:#ffffff;opacity:0.1" d="M 9.6230469 2 C 9.332949 2 5.2275563 4.4547407 5.0703125 4.7070312 C 5.0140397 4.7972708 5.0081871 5.1025199 5.0351562 5.421875 C 5.0450208 5.3402311 5.049304 5.2407207 5.0703125 5.2070312 C 5.2275563 4.9547408 9.332949 2.5 9.6230469 2.5 C 9.7437414 2.5 9.9149565 2.5926789 10.003906 2.7070312 C 10.467736 3.3033132 10.933751 5.7999371 10.988281 7.2792969 C 11.052998 5.9599869 10.526216 2.8784931 10.003906 2.2070312 C 9.9149565 2.092679 9.7437414 2 9.6230469 2 z M 13.376953 2 C 13.256258 2 13.085045 2.0926789 12.996094 2.2070312 C 12.473785 2.8784931 11.947002 5.959987 12.011719 7.2792969 C 12.066249 5.7999372 12.532265 3.3033132 12.996094 2.7070312 C 13.085045 2.592679 13.256258 2.5 13.376953 2.5 C 13.667052 2.5 17.819316 4.9547406 17.976562 5.2070312 C 17.997397 5.240442 18.003795 5.3392697 18.013672 5.4199219 C 18.040389 5.1013688 18.032712 4.7970728 17.976562 4.7070312 C 17.819315 4.4547406 13.667052 2 13.376953 2 z M 5.0585938 6.3339844 C 4.9558354 7.5242569 4.1533653 8.370323 2.8867188 8.9257812 L 2 9.3144531 L 2 9.8144531 L 2.8867188 9.4257812 C 4.3236179 8.7956627 5.1635261 7.7918352 5.0585938 6.3339844 z M 17.988281 6.34375 C 17.883304 7.7962829 18.679599 8.797074 20.113281 9.4257812 L 21 9.8144531 L 21 9.3144531 L 20.113281 8.9257812 C 18.850193 8.3718837 18.083658 7.5287252 17.988281 6.34375 z M 7.2246094 12.025391 C 7.2131045 12.132314 7.2112897 12.286026 7.2265625 12.617188 L 7.2617188 13.392578 L 7.2832031 13.378906 L 7.2265625 12.117188 C 7.2245226 12.072955 7.2262385 12.064237 7.2246094 12.025391 z M 15.775391 12.025391 C 15.773762 12.064237 15.775477 12.072955 15.773438 12.117188 L 15.716797 13.378906 L 15.738281 13.392578 L 15.773438 12.617188 C 15.788709 12.286025 15.786896 12.132314 15.775391 12.025391 z"/>
</svg>

<svg xmlns="http://www.w3.org/2000/svg" width="24" height="24"><path style="opacity:.2" d="M9.623 2.5c-.29 0-4.395 2.455-4.553 2.707-.067.108-.078.51-.025.895.22 1.587-.645 2.66-2.158 3.324L2 9.814v2.72c0 1.495.056 2.776.125 2.847.405.414 3.389-.318 4.598-1.127l.56-.375-.056-1.262c-.047-1.016.01-.556.3-1.207.484-1.086 1.38-1.962 2.45-2.392.758-.306.895-.43.984-.899.197-1.041-.386-4.678-.957-5.412-.089-.114-.26-.207-.381-.207zm3.754 0c-.12 0-.292.093-.38.207-.572.734-1.155 4.37-.958 5.412.089.469.226.593.984.899 1.07.43 1.966 1.306 2.45 2.392.29.651.347.19.3 1.207l-.056 1.262.56.375c1.21.81 4.193 1.54 4.598 1.127.07-.07.125-1.352.125-2.848V9.814l-.887-.388c-1.513-.664-2.33-1.737-2.111-3.324.053-.384.042-.787-.025-.895-.158-.252-4.31-2.707-4.6-2.707zm-5.395 13c-2.055.66-3.593 1.881-4.939 3.645-.153.583-.035.676 2.768 2.207.808.441 1.58.833 2.091 1.066.401.165.578-.167.871-.654.41-.453 1.282-1.159 2.727-1.159 1.325 0 2.21.595 2.688 1.043.324.36.39 1.106.962.764.518-.251 1.35-.686 2.245-1.178 3.213-1.765 3.219-1.774 1.296-3.562-1.087-1.009-2.304-1.97-3.945-2.172l-.926.64c-1.154.8-1.145 1.062-2.383 1.051-1.233-.01-1.654-.328-2.658-1.087l-.797-.604z"/><path style="fill:#3f3f3f" d="M9.623 2c-.29 0-4.395 2.455-4.553 2.707-.067.108-.078.51-.025.895.22 1.587-.645 2.66-2.158 3.324L2 9.314v2.72c0 1.495.056 2.776.125 2.847.405.414 3.389-.318 4.598-1.127l.56-.375-.056-1.262c-.047-1.016.01-.556.3-1.207.484-1.086 1.38-1.962 2.45-2.392.758-.306.895-.43.984-.899.197-1.041-.386-4.678-.957-5.412C9.915 2.093 9.744 2 9.623 2zm3.754 0c-.12 0-.292.093-.38.207-.572.734-1.155 4.37-.958 5.412.089.469.226.593.984.899 1.07.43 1.966 1.306 2.45 2.392.29.651.347.19.3 1.207l-.056 1.262.56.375c1.21.81 4.193 1.54 4.598 1.127.07-.07.125-1.352.125-2.848V9.314l-.887-.388c-1.513-.664-2.33-1.737-2.111-3.324.053-.384.042-.787-.025-.895-.158-.252-4.31-2.707-4.6-2.707zM7.982 15c-2.055.66-3.593 1.881-4.939 3.645-.153.583-.035.676 2.768 2.207.808.441 1.58.833 2.091 1.066.401.165.578-.167.871-.654.41-.453 1.282-1.159 2.727-1.159 1.325 0 2.21.595 2.688 1.043.324.36.39 1.106.962.764.518-.251 1.35-.686 2.245-1.178 3.213-1.765 3.219-1.774 1.296-3.562-1.087-1.009-2.304-1.97-3.945-2.172l-.926.64c-1.154.8-1.145 1.062-2.383 1.051-1.233-.01-1.654-.328-2.658-1.087L7.982 15z"/><circle style="opacity:.2" cx="11.5" cy="13" r="4.5"/><circle style="fill:#fff" cx="11.5" cy="12.5" r="4.5"/><path style="fill:#fff;opacity:.1" d="M9.623 2c-.29 0-4.395 2.455-4.553 2.707-.056.09-.062.396-.035.715.01-.082.014-.181.035-.215C5.228 4.955 9.333 2.5 9.623 2.5c.12 0 .292.093.38.207.465.596.93 3.093.985 4.572.065-1.319-.462-4.4-.984-5.072C9.915 2.093 9.744 2 9.623 2zm3.754 0c-.12 0-.292.093-.38.207-.523.671-1.05 3.753-.985 5.072.054-1.48.52-3.976.984-4.572.089-.114.26-.207.381-.207.29 0 4.442 2.455 4.6 2.707.02.033.027.132.037.213.026-.319.019-.623-.037-.713-.158-.252-4.31-2.707-4.6-2.707zM5.059 6.334c-.103 1.19-.906 2.036-2.172 2.592L2 9.314v.5l.887-.388c1.437-.63 2.277-1.634 2.172-3.092zm12.93.01c-.106 1.452.69 2.453 2.124 3.082l.887.388v-.5l-.887-.388c-1.263-.554-2.03-1.397-2.125-2.582zM7.224 12.025c-.012.107-.014.261.002.592l.035.776.021-.014-.056-1.262c-.002-.044 0-.053-.002-.092zm8.55 0c-.001.04 0 .048-.002.092l-.056 1.262.021.014.035-.776c.016-.331.014-.485.002-.592z"/></svg>
